lib/flags/m/GNQ.svg

<svg xmlns="http://www.w3.org/2000/svg" fill="none" viewBox="0 0 20 15"><mask id="GNQ_svg__a" width="20" height="15" x="0" y="0" mask-type="alpha" maskUnits="userSpaceOnUse"><path fill="#fff" d="M0 0H20V15H0z"/></mask><g mask="url(#GNQ_svg__a)"><path fill="#F7FCFF" fill-rule="evenodd" d="M0 0V15.36H20.48V0H0Z" clip-rule="evenodd"/><mask id="GNQ_svg__b" width="21" height="16" x="0" y="0" mask-type="alpha" maskUnits="userSpaceOnUse"><path fill="#fff" fill-rule="evenodd" d="M0 0V15.36H20.48V0H0Z" clip-rule="evenodd"/></mask><g fill-rule="evenodd" clip-rule="evenodd" mask="url(#GNQ_svg__b)"><path fill="#009D00" d="M0 0V5.12H20.48V0H0Z"/><path fill="#fff" d="M0 5.12V10.24H20.48V5.12H0Z"/><path fill="#F80000" d="M0 10.24V15.36H20.48V10.24H0Z"/></g><path fill="#0075D5" fill-rule="evenodd" d="M0 0V15.36L5.12 7.77725L0 0Z" clip-rule="evenodd"/><mask width="6" height="16" x="0" y="0" mask-type="alpha" maskUnits="userSpaceOnUse"><path fill="#fff" fill-rule="evenodd" d="M0 0V15.36L5.12 7.77725L0 0Z" clip-rule="evenodd"/></mask><path fill="#FFD500" stroke="#000" stroke-width=".04" d="M9.3258 5.68898 9.31554 5.6913 9.30782 5.68416 9.1815 5.56746 9.16571 5.73871 9.16474 5.74918 9.15557 5.75432 9.00555 5.8384 9.16354 5.90634 9.1732 5.91049 9.17525 5.9208 9.20885 6.08946 9.32229 5.9602 9.32922 5.9523 9.33966 5.95353 9.51045 5.97369 9.42257 5.82587 9.4172 5.81683 9.4216 5.80728 9.49355 5.65108 9.3258 5.68898zM9.96581 5.68898 9.95556 5.6913 9.94783 5.68416 9.82151 5.56746 9.80572 5.73871 9.80476 5.74918 9.79559 5.75432 9.64556 5.8384 9.80355 5.90634 9.81321 5.91049 9.81527 5.9208 9.84887 6.08946 9.9623 5.9602 9.96924 5.9523 9.97968 5.95353 10.1505 5.97369 10.0626 5.82587 10.0572 5.81683 10.0616 5.80728 10.1336 5.65108 9.96581 5.68898zM10.6058 5.68898 10.5956 5.6913 10.5878 5.68416 10.4615 5.56746 10.4457 5.73871 10.4448 5.74918 10.4356 5.75432 10.2856 5.8384 10.4436 5.90634 10.4532 5.91049 10.4553 5.9208 10.4889 6.08946 10.6023 5.9602 10.6093 5.9523 10.6197 5.95353 10.7905 5.97369 10.7026 5.82587 10.6972 5.81683 10.7016 5.80728 10.7736 5.65108 10.6058 5.68898zM11.2458 5.68898 11.2355 5.6913 11.2278 5.68416 11.1015 5.56746 11.0857 5.73871 11.0847 5.74918 11.0756 5.75432 10.9255 5.8384 11.0835 5.90634 11.0932 5.91049 11.0952 5.9208 11.1288 6.08946 11.2423 5.9602 11.2492 5.9523 11.2596 5.95353 11.4304 5.97369 11.3426 5.82587 11.3372 5.81683 11.3416 5.80728 11.4135 5.65108 11.2458 5.68898zM11.8858 5.68898 11.8755 5.6913 11.8678 5.68416 11.7415 5.56746 11.7257 5.73871 11.7247 5.74918 11.7156 5.75432 11.5655 5.8384 11.7235 5.90634 11.7332 5.91049 11.7352 5.9208 11.7689 6.08946 11.8823 5.9602 11.8892 5.9523 11.8997 5.95353 12.0705 5.97369 11.9826 5.82587 11.9772 5.81683 11.9816 5.80728 12.0535 5.65108 11.8858 5.68898zM12.5258 5.68898 12.5156 5.6913 12.5078 5.68416 12.3815 5.56746 12.3657 5.73871 12.3648 5.74918 12.3556 5.75432 12.2056 5.8384 12.3635 5.90634 12.3732 5.91049 12.3753 5.9208 12.4089 6.08946 12.5223 5.9602 12.5292 5.9523 12.5397 5.95353 12.7105 5.97369 12.6226 5.82587 12.6172 5.81683 12.6216 5.80728 12.6936 5.65108 12.5258 5.68898z"/><path stroke="#373737" stroke-width=".08" d="M9.63998 6.44002H12.12V8.32002C12.12 9.00486 11.5648 9.56002 10.88 9.56002C10.1951 9.56002 9.63998 9.00486 9.63998 8.32002V6.44002Z"/><path fill="#6F3E1D" fill-rule="evenodd" d="M10.7049 7.65434C10.7049 7.65434 10.5758 9.16812 10.4469 9.25986C10.3181 9.3516 11.0645 9.39741 11.1358 9.32864C11.2071 9.25986 10.8103 8.02632 10.9468 7.65434C11.0833 7.28237 11.3032 7.25222 11.3032 7.25222C11.3032 7.25222 11.026 7.19364 10.9468 7.30525C10.8676 7.41687 10.6314 7.25222 10.6314 7.25222L10.7049 7.65434Z" clip-rule="evenodd"/><path fill="#009D29" fill-rule="evenodd" d="M10.6767 7.56881H10.5773C10.5773 7.56881 10.5101 7.83168 10.3559 7.70025C10.2016 7.56881 9.98401 7.61514 9.98401 7.61514C9.98401 7.61514 10.0035 7.45783 10.2403 7.3953C10.4772 7.33276 10.5773 6.82497 10.5773 6.82497C10.5773 6.82497 10.9125 6.70022 11.1163 6.95586C11.3202 7.21149 11.6074 7.10243 11.6074 7.10243C11.6074 7.10243 11.8174 7.22179 11.7124 7.3953C11.6074 7.56881 11.4284 7.69574 11.2724 7.56881C11.1163 7.44188 10.6767 7.56881 10.6767 7.56881Z" clip-rule="evenodd"/></g></svg>

<svg xmlns="http://www.w3.org/2000/svg" fill="none" viewBox="0 0 20 15"><mask id="GNQ_svg__a" width="20" height="15" x="0" y="0" maskUnits="userSpaceOnUse"><path fill="#fff" d="M0 0h20v15H0z"/></mask><g mask="url(#GNQ_svg__a)"><path fill="#F7FCFF" fill-rule="evenodd" d="M0 0v15.36h20.48V0H0z" clip-rule="evenodd"/><mask id="GNQ_svg__b" width="21" height="16" x="0" y="0" maskUnits="userSpaceOnUse"><path fill="#fff" fill-rule="evenodd" d="M0 0v15.36h20.48V0H0z" clip-rule="evenodd"/></mask><g fill-rule="evenodd" clip-rule="evenodd" mask="url(#GNQ_svg__b)"><path fill="#009D00" d="M0 0v5.12h20.48V0H0z"/><path fill="#fff" d="M0 5.12v5.12h20.48V5.12H0z"/><path fill="#F80000" d="M0 10.24v5.12h20.48v-5.12H0z"/></g><path fill="#0075D5" fill-rule="evenodd" d="M0 0v15.36l5.12-7.583L0 0z" clip-rule="evenodd"/><path fill="#FFD500" stroke="#000" stroke-width=".04" d="M9.326 5.689l-.01.002-.008-.007-.126-.117-.016.172-.001.01-.01.005-.15.084.159.068.01.004.001.01.034.17.113-.13.007-.008.01.002.171.02-.087-.148-.006-.01.005-.009.072-.156-.168.038zm.64 0l-.01.002-.008-.007-.126-.117-.016.172-.001.01-.01.005-.15.084.159.068.01.004.001.01.034.17.113-.13.007-.008.01.002.171.02-.087-.148-.006-.01.005-.009.072-.156-.168.038zm.64 0l-.01.002-.008-.007-.127-.117-.015.172-.001.01-.01.005-.15.084.159.068.01.004.001.01.034.17.113-.13.007-.008.01.002.171.02-.087-.148-.006-.01.005-.009.072-.156-.168.038zm.64 0l-.01.002-.008-.007-.127-.117-.015.172-.001.01-.01.005-.15.084.159.068.01.004.001.01.034.17.113-.13.007-.008.01.002.171.02-.087-.148-.006-.01.005-.009.072-.156-.168.038zm.64 0l-.01.002-.008-.007-.127-.117-.015.172-.001.01-.01.005-.15.084.159.068.01.004.001.01.034.17.113-.13.007-.008.01.002.171.02-.087-.148-.006-.01.005-.009.072-.156-.168.038zm.64 0l-.01.002-.008-.007-.126-.117-.016.172-.001.01-.01.005-.15.084.159.068.01.004.001.01.034.17.113-.13.007-.008.01.002.171.02-.087-.148-.006-.01.005-.009.072-.156-.168.038z"/><path stroke="#373737" stroke-width=".08" d="M9.64 6.44h2.48v1.88a1.24 1.24 0 01-2.48 0V6.44z"/><path fill="#6F3E1D" fill-rule="evenodd" d="M10.705 7.654s-.13 1.514-.258 1.606c-.129.092.618.137.689.069.071-.07-.326-1.303-.19-1.675.137-.372.357-.402.357-.402s-.277-.058-.356.053c-.08.112-.316-.053-.316-.053l.074.402z" clip-rule="evenodd"/><path fill="#009D29" fill-rule="evenodd" d="M10.677 7.569h-.1s-.067.263-.221.131c-.154-.131-.372-.085-.372-.085s.02-.157.256-.22c.237-.062.337-.57.337-.57s.335-.125.54.13c.203.256.49.147.49.147s.21.12.105.293c-.105.174-.284.3-.44.174-.156-.127-.595 0-.595 0z" clip-rule="evenodd"/></g></svg>
